src/lib/packages/icons/src/assets/line/users-slash.svg

<svg width="24" height="24" viewBox="0 0 24 24" fill="none" xmlns="http://www.w3.org/2000/svg">
<path d="M9.00903 10.75C11.353 10.75 13.259 8.84302 13.259 6.50002C13.259 4.15702 11.353 2.25002 9.00903 2.25002C6.66503 2.25002 4.75903 4.15702 4.75903 6.50002C4.75903 8.84302 6.66503 10.75 9.00903 10.75ZM9.00903 3.75002C10.526 3.75002 11.759 4.98302 11.759 6.50002C11.759 8.01702 10.526 9.25002 9.00903 9.25002C7.49203 9.25002 6.25903 8.01702 6.25903 6.50002C6.25903 4.98302 7.49203 3.75002 9.00903 3.75002ZM16.75 18.02C16.75 20.425 15.418 21.75 13 21.75H6.89001C6.47601 21.75 6.14001 21.414 6.14001 21C6.14001 20.586 6.47601 20.25 6.89001 20.25H13C14.577 20.25 15.25 19.583 15.25 18.02C15.25 17.454 15.134 15.524 13.642 14.486C13.302 14.249 13.218 13.782 13.455 13.442C13.691 13.102 14.157 13.0171 14.499 13.2541C15.908 14.2361 16.75 16.017 16.75 18.02ZM19.4821 8.47207C19.7541 8.73207 19.793 9.14306 19.584 9.44106C19.255 10.0111 18.78 10.4711 18.208 10.7741C18.092 10.8391 17.962 10.8731 17.833 10.8731C17.641 10.8731 17.4501 10.801 17.3051 10.656C17.0121 10.363 17.007 9.893 17.3 9.6C17.354 9.546 17.426 9.49098 17.494 9.45498C17.838 9.27598 18.11 9.00798 18.304 8.65798C18.335 8.60198 18.373 8.55005 18.417 8.50405C18.702 8.20305 19.1821 8.18707 19.4821 8.47207ZM22.75 16.6801C22.75 18.6311 21.624 19.75 19.66 19.75H18.98C18.566 19.75 18.23 19.414 18.23 19C18.23 18.586 18.566 18.25 18.98 18.25H19.66C20.805 18.25 21.25 17.8101 21.25 16.6801C21.25 15.9411 21.023 13.5301 18.11 13.5301H16.599C16.185 13.5301 15.849 13.1941 15.849 12.7801C15.849 12.3661 16.185 12.0301 16.599 12.0301H18.11C21.535 12.0301 22.75 14.5351 22.75 16.6801ZM21.53 3.53005C21.823 3.23705 21.823 2.76202 21.53 2.46902C21.237 2.17602 20.762 2.17602 20.469 2.46902L18.243 4.69497C17.264 4.16397 16.006 4.10905 15.046 4.60305C14.678 4.79205 14.532 5.24506 14.722 5.61306C14.91 5.98106 15.3651 6.12804 15.7321 5.93704C16.1231 5.73704 16.6279 5.72305 17.0909 5.84805L10.689 12.25H7C2.756 12.25 1.25 15.358 1.25 18.02C1.25 19.204 1.57102 20.1131 2.19202 20.7481L1.46997 21.47C1.17697 21.763 1.17697 22.238 1.46997 22.531C1.61597 22.677 1.808 22.751 2 22.751C2.192 22.751 2.38403 22.678 2.53003 22.531L21.53 3.53005ZM2.75 18.02C2.75 17.019 3.057 13.75 7 13.75H9.18896L3.24902 19.69C2.98002 19.404 2.75 18.919 2.75 18.02Z" fill="currentColor"/>
</svg>

<svg xmlns="http://www.w3.org/2000/svg" width="24" height="24" fill="none"><path fill="currentColor" d="M9.009 10.75a4.255 4.255 0 0 0 4.25-4.25 4.255 4.255 0 0 0-4.25-4.25 4.255 4.255 0 0 0-4.25 4.25 4.255 4.255 0 0 0 4.25 4.25Zm0-7a2.752 2.752 0 0 1 2.75 2.75 2.752 2.752 0 0 1-2.75 2.75 2.752 2.752 0 0 1-2.75-2.75 2.752 2.752 0 0 1 2.75-2.75Zm7.741 14.27c0 2.405-1.332 3.73-3.75 3.73H6.89a.75.75 0 0 1 0-1.5H13c1.577 0 2.25-.667 2.25-2.23 0-.566-.116-2.496-1.608-3.534a.75.75 0 1 1 .857-1.232c1.409.982 2.251 2.763 2.251 4.766Zm2.732-9.548c.272.26.311.671.102.97a3.458 3.458 0 0 1-1.376 1.332.77.77 0 0 1-.375.1.743.743 0 0 1-.528-.218A.744.744 0 0 1 17.3 9.6a.862.862 0 0 1 .194-.145c.344-.179.616-.447.81-.797a.756.756 0 0 1 1.178-.186Zm3.268 8.208c0 1.951-1.126 3.07-3.09 3.07h-.68a.75.75 0 0 1 0-1.5h.68c1.145 0 1.59-.44 1.59-1.57 0-.739-.227-3.15-3.14-3.15h-1.511a.75.75 0 0 1 0-1.5h1.511c3.425 0 4.64 2.505 4.64 4.65ZM21.53 3.53a.75.75 0 0 0-1.061-1.061l-2.226 2.226c-.979-.531-2.237-.586-3.197-.092a.75.75 0 1 0 .686 1.334c.391-.2.896-.214 1.359-.089l-6.402 6.402H7c-4.244 0-5.75 3.108-5.75 5.77 0 1.184.321 2.093.942 2.728l-.722.722a.75.75 0 0 0 1.06 1.061l19-19ZM2.75 18.02c0-1.001.307-4.27 4.25-4.27h2.189l-5.94 5.94c-.269-.286-.499-.771-.499-1.67Z"/></svg>
